exported-svg/video.svg

<svg height="24" viewBox="0 0 24 24" width="24" xmlns="http://www.w3.org/2000/svg"><path d="m16.5 11.5284053 6.2093809-4.43527204c.3309342-.23638159.7906191.00018046.7906191.40686674v10c0 .4066863-.4596849.6432483-.7906191.4068667l-6.2093809-4.435272v4.0284053c0 1.3807119-1.1192881 2.5-2.5 2.5h-11c-1.38071187 0-2.5-1.1192881-2.5-2.5v-10c0-1.38071187 1.11928813-2.5 2.5-2.5h11c1.3807119 0 2.5 1.11928813 2.5 2.5zm6 5v-8.05681064l-5.6397675 4.02840534zm-19.5-10.5284053c-.82842712 0-1.5.67157288-1.5 1.5v10c0 .8284271.67157288 1.5 1.5 1.5h11c.8284271 0 1.5-.6715729 1.5-1.5v-10c0-.82842712-.6715729-1.5-1.5-1.5z"/></svg>

<?xml version="1.0" encoding="UTF-8"?>
<svg width="24px" height="24px" viewBox="0 0 24 24" version="1.1" xmlns="http://www.w3.org/2000/svg" xmlns:xlink="http://www.w3.org/1999/xlink">
    <!-- Generator: Sketch 55.2 (78181) - https://sketchapp.com -->
    <title>video</title>
    <desc>Created with Sketch.</desc>
    <g id="video" stroke="none" stroke-width="1" fill="none" fill-rule="evenodd">
        <path d="M16.5,11.5284053 L22.7093809,7.09313326 C23.0403151,6.85675167 23.5,7.09331372 23.5,7.5 L23.5,17.5 C23.5,17.9066863 23.0403151,18.1432483 22.7093809,17.9068667 L16.5,13.4715947 L16.5,17.5 C16.5,18.8807119 15.3807119,20 14,20 L3,20 C1.61928813,20 0.5,18.8807119 0.5,17.5 L0.5,7.5 C0.5,6.11928813 1.61928813,5 3,5 L14,5 C15.3807119,5 16.5,6.11928813 16.5,7.5 L16.5,11.5284053 Z M22.5,16.5284053 L22.5,8.47159466 L16.8602325,12.5 L22.5,16.5284053 Z M3,6 C2.17157288,6 1.5,6.67157288 1.5,7.5 L1.5,17.5 C1.5,18.3284271 2.17157288,19 3,19 L14,19 C14.8284271,19 15.5,18.3284271 15.5,17.5 L15.5,7.5 C15.5,6.67157288 14.8284271,6 14,6 L3,6 Z" id="Combined-Shape" fill="#000000" fill-rule="nonzero"></path>
    </g>
</svg>
